src/icons/outline/users/supervisor.svg

<svg width="24" height="24" viewBox="0 0 24 24" fill="none" xmlns="http://www.w3.org/2000/svg">
<g clip-path="url(#clip0_5033_1575)">
<path fill-rule="evenodd" clip-rule="evenodd" d="M8.31543 13.3009C8.58907 13.3009 8.85244 13.3709 9.08398 13.4913C9.94714 13.9532 10.9581 14.214 12.0107 14.214C13.0632 14.214 14.063 13.9531 14.9365 13.4913C15.1786 13.3608 15.442 13.3009 15.7051 13.3009L15.9092 13.3146C15.9763 13.3234 16.0423 13.3356 16.1055 13.3507C19.4843 14.2946 22 17.1869 22 20.7413C21.9997 21.9862 20.9577 23.0001 19.6631 23.0001H4.33691C3.04234 23.0001 2.00027 21.9862 2 20.7413C2 17.1968 4.50528 14.2142 7.90527 13.3507C8.03159 13.3206 8.16882 13.3009 8.30566 13.3009H8.31543ZM15.6523 14.797C14.5577 15.4093 13.2946 15.7198 12 15.7198C10.8671 15.7198 9.75041 15.4741 8.73438 15.0157L8.30566 14.8068C5.51619 15.5197 3.5791 17.9499 3.5791 20.7413C3.57936 21.1528 3.91603 21.4943 4.33691 21.4943H19.6631C20.084 21.4943 20.4206 21.1528 20.4209 20.7413C20.4209 18.0759 18.6231 15.7396 15.917 14.8751L15.6523 14.797Z" fill="#3C3B44"/>
<path fill-rule="evenodd" clip-rule="evenodd" d="M12.0098 1.00012C15.2097 1.00012 17.7997 3.47016 17.7998 6.52258C17.7998 9.57507 15.2098 12.045 12.0098 12.045C8.80996 12.0448 6.2207 9.57494 6.2207 6.52258C6.22078 3.47029 8.81 1.00033 12.0098 1.00012ZM11.9893 5.91028C11.8212 5.91028 11.6529 5.94017 11.6416 6.00012C11.5175 6.38477 11.3327 6.79903 11.3262 6.8136C11.3262 6.8136 11.168 7.29592 10.7891 7.47668C10.4101 7.65742 10.0626 7.68762 9.49414 7.68762C8.9333 7.68761 8.43408 7.56965 8.4209 7.56653C8.4209 7.56653 8.01043 7.43627 7.85254 6.77356L7.7998 6.55774C7.81951 8.76054 9.69589 10.539 12.0098 10.5392C14.3361 10.5392 16.2207 8.74166 16.2207 6.52258L16.2188 6.3927C16.1924 6.49822 16.1616 6.6272 16.126 6.78333C15.9708 7.4644 15.5711 7.56337 15.5576 7.56653C15.5576 7.56653 15.0518 7.68762 14.4834 7.68762C13.9151 7.68761 13.5674 7.6574 13.1885 7.47668C12.8098 7.29582 12.6523 6.8136 12.6523 6.8136C12.6482 6.80447 12.4609 6.38741 12.3359 6.00012C12.3246 5.94025 12.1571 5.91032 11.9893 5.91028ZM12.0098 2.50598C10.254 2.50614 8.74061 3.54004 8.11133 5.00696C8.39974 4.98722 8.71745 4.97669 9.05176 4.97668C9.92532 4.97668 10.9149 5.05691 11.7148 5.2677H12.3154C13.1259 5.05686 14.1051 4.97668 14.9893 4.97668L14.957 4.98645C15.2987 4.98645 15.6235 4.99984 15.917 5.02161C15.294 3.54667 13.7797 2.50598 12.0098 2.50598Z" fill="#3C3B44"/>
</g>
<defs>
<clipPath id="clip0_5033_1575">
<rect width="24" height="24" fill="white"/>
</clipPath>
</defs>
</svg>

<svg xmlns="http://www.w3.org/2000/svg" width="24" height="24" fill="none" viewBox="0 0 24 24"><g fill="currentColor" fill-rule="evenodd" clip-path="url(#a)" clip-rule="evenodd"><path d="M8.315 13.3c.274 0 .537.07.769.191a6.2 6.2 0 0 0 2.927.723c1.052 0 2.052-.26 2.926-.723.242-.13.505-.19.768-.19l.204.014q.101.012.196.036c3.38.944 5.895 3.836 5.895 7.39 0 1.245-1.042 2.26-2.337 2.26H4.337C3.042 23 2 21.985 2 20.74c0-3.544 2.505-6.527 5.905-7.39.127-.03.264-.05.4-.05zm7.337 1.497c-1.094.612-2.357.923-3.652.923a8 8 0 0 1-3.266-.704l-.428-.21c-2.79.714-4.727 3.144-4.727 5.935 0 .412.337.753.758.753h15.326a.756.756 0 0 0 .758-.753c0-2.665-1.798-5.001-4.504-5.866zM12.01 1c3.2 0 5.79 2.47 5.79 5.523s-2.59 5.522-5.79 5.522-5.79-2.47-5.79-5.522S8.81 1 12.01 1m-.02 4.91c-.169 0-.337.03-.348.09a9 9 0 0 1-.316.814s-.158.482-.537.663c-.379.18-.726.21-1.295.21-.56 0-1.06-.117-1.073-.12 0 0-.41-.13-.568-.793L7.8 6.558c.02 2.203 1.896 3.981 4.21 3.981 2.326 0 4.21-1.797 4.21-4.016l-.001-.13q-.04.157-.093.39c-.155.681-.555.78-.568.784 0 0-.506.12-1.075.12-.568 0-.916-.03-1.295-.21-.378-.181-.536-.663-.536-.663-.004-.01-.191-.427-.316-.814-.011-.06-.179-.09-.347-.09m.02-3.404c-1.756 0-3.27 1.034-3.899 2.501.289-.02.606-.03.94-.03.874 0 1.864.08 2.664.29h.6c.81-.21 1.79-.29 2.674-.29l-.032.01c.342 0 .666.013.96.035-.623-1.475-2.137-2.516-3.907-2.516"/></g><defs><clipPath id="a"><path fill="currentColor" d="M0 0h24v24H0z"/></clipPath></defs></svg>
